icons/glyphs/glyph-invert.svg

<?xml version="1.0" encoding="UTF-8" standalone="no"?><svg height="16" viewBox="0 0 4.2333333 4.2333333" width="16" xmlns="http://www.w3.org/2000/svg"><sodipodi:namedview/><metadata><rdf:RDF><cc:Work><dc:format>image/svg+xml</dc:format><dc:type/><dc:title/></cc:Work></rdf:RDF></metadata><path d="m .00000003 0v4.2333333l1.18184017-1.1818402a1.3229166 1.3229166 0 0 1 -.38809018-.9348264 1.3229166 1.3229166 0 0 1 1.32291668-1.3229167 1.3229166 1.3229166 0 0 1  .9348265.38809l-.9343096.9343098-.9353434.9353433a1.3229166 1.3229166 0 0 0 1.8706867 0 1.3229166 1.3229166 0 0 0 0-1.8706866l1.1808064-1.1808065z" fill="#d0d0d0"/></svg>

<?xml version="1.0" encoding="UTF-8" standalone="no"?>
<!-- Created with Inkscape (http://www.inkscape.org/) -->

<svg
     xmlns:dc="http://purl.org/dc/elements/1.1/"
     xmlns:cc="http://creativecommons.org/ns#"
     xmlns:rdf="http://www.w3.org/1999/02/22-rdf-syntax-ns#"
     xmlns:svg="http://www.w3.org/2000/svg"
     xmlns="http://www.w3.org/2000/svg"
     xmlns:sodipodi="http://sodipodi.sourceforge.net/DTD/sodipodi-0.dtd"
     xmlns:inkscape="http://www.inkscape.org/namespaces/inkscape"
     width="16"
     height="16"
     viewBox="0 0 4.2333333 4.2333333"
     version="1.1"
     id="svg8"
     inkscape:version="0.92+devel (78cebbf91a, 2017-07-21, custom)"
     sodipodi:docname="glyph-invert.svg">
    <defs
         id="defs2" />
    <sodipodi:namedview
         id="base"
         pagecolor="#002466"
         bordercolor="#ffffff"
         borderopacity="0.38039216"
         inkscape:pageopacity="1"
         inkscape:pageshadow="2"
         inkscape:zoom="26.8125"
         inkscape:cx="8"
         inkscape:cy="8"
         inkscape:document-units="px"
         inkscape:current-layer="svg8"
         inkscape:document-rotation="0"
         showgrid="false"
         inkscape:showpageshadow="false"
         borderlayer="true"
         inkscape:window-width="1920"
         inkscape:window-height="1051"
         inkscape:window-x="0"
         inkscape:window-y="0"
         inkscape:window-maximized="1"
         units="px" />
    <metadata
         id="metadata5">
        <rdf:RDF>
            <cc:Work
                 rdf:about="">
                <dc:format>image/svg+xml</dc:format>
                <dc:type
                     rdf:resource="http://purl.org/dc/dcmitype/StillImage" />
                <dc:title></dc:title>
            </cc:Work>
        </rdf:RDF>
    </metadata>
    <path
         style="display:inline;opacity:1;fill:#d0d0d0;stroke:none;stroke-width:0.27285156px;stroke-linecap:butt;stroke-linejoin:miter;stroke-opacity:1"
         d="M 2.5e-8,0 V 4.2333333 L 1.1818402,3.0514931 A 1.3229166,1.3229166 0 0 1 0.79375002,2.1166667 1.3229166,1.3229166 0 0 1 2.1166667,0.79375 1.3229166,1.3229166 0 0 1 3.0514932,1.18184 L 2.1171836,2.1161498 1.1818402,3.0514931 a 1.3229166,1.3229166 0 0 0 1.8706867,0 1.3229166,1.3229166 0 0 0 0,-1.8706866 L 4.2333333,0 Z"
         id="path4294"
         inkscape:label="#1"
         inkscape:connector-curvature="0" />
</svg>
